lib/brands/icons/maria-db.svg

<svg xmlns="http://www.w3.org/2000/svg" fill="none" aria-hidden="true" viewBox="0 0 48 48"><g id="maria-db-Icon"><g id="Group"><path id="Vector" fill="#002B64" d="M43.1223 10.7194C42.5041 10.7392 42.6996 10.9173 41.3638 11.246C40.0149 11.578 38.3672 11.4762 36.9147 12.0854C32.5786 13.9039 31.7086 20.1192 27.7667 22.3456C24.8202 24.0099 21.8475 24.1427 19.1748 24.9802C17.4184 25.5309 15.4971 26.6605 13.9057 28.0318C12.6705 29.0967 12.6382 30.0329 11.3476 31.3685C9.96711 32.797 5.86096 31.3926 4 33.579C4.59949 34.1852 4.8623 34.3549 6.0437 34.1977C5.79911 34.6613 4.35729 35.0519 4.63953 35.7339C4.9365 36.4515 8.42222 36.938 11.5909 35.0249C13.0666 34.1339 14.242 32.8498 16.5403 32.5433C19.5143 32.1469 22.9404 32.7975 26.3834 33.294C25.8729 34.8162 24.8479 35.8285 24.0269 37.0408C23.7726 37.3146 24.5375 37.3453 25.4102 37.1798C26.98 36.7916 28.1113 36.4791 29.296 35.7895C30.7515 34.9422 30.972 32.77 32.7578 32.3C33.7528 33.8293 36.4589 34.1905 38.1381 32.9673C36.6647 32.5502 36.2574 29.4139 36.7548 28.0318C37.226 26.7236 37.6915 24.631 38.1659 22.9017C38.6753 21.0445 38.8633 18.7037 39.4798 17.7577C40.4073 16.3344 41.4321 15.8456 42.3219 15.043C43.2117 14.2405 44.0261 13.4592 43.9994 11.6227C43.9908 11.0312 43.6849 10.7015 43.1223 10.7194Z"/><path id="Vector_2" fill="#C49A6C" d="M41.7976 11.8075C41.9457 12.3125 42.1775 12.5443 43.1795 12.637C43.0332 13.9074 42.1857 14.6023 41.2356 15.269C40.3994 15.8554 39.4834 16.4201 38.8948 17.3361C38.2918 18.2745 37.9089 21.486 36.9739 24.6575C36.1657 27.398 34.9452 30.1076 32.8138 31.2948C32.5911 30.7343 32.8422 29.6999 32.3993 29.3599C32.1127 30.1772 31.7887 30.957 31.4092 31.6818C30.1585 34.0723 28.3068 35.8621 25.2124 36.4086C26.6807 34.4218 28.0846 32.37 28.115 28.9456C27.0816 29.1692 27.1036 31.61 26.0419 32.2625C25.3612 32.3365 24.6717 32.3361 23.9777 32.2944C21.1277 32.1236 18.2041 31.2671 15.538 32.1225C13.7226 32.7052 12.238 34.0796 10.7008 34.7463C8.89406 35.5299 7.52584 35.8521 5.27601 35.5299C4.99035 35.1451 6.92257 34.6485 6.80702 33.813C5.92652 33.7156 5.4153 33.929 4.6499 33.5812C4.7344 33.4255 4.85861 33.2958 5.01497 33.1878C6.41778 32.2168 10.4024 32.9584 11.4688 31.9114C12.1271 31.2655 12.5589 30.5895 13.006 29.9323C13.4396 29.2947 13.8879 28.6748 14.5707 28.1161C14.8229 27.9099 15.0971 27.706 15.388 27.5071C16.5518 26.7106 17.9914 25.9883 19.4082 25.4904C21.3382 24.8119 23.2939 24.756 25.351 23.97C26.6219 23.4843 28.0038 22.8843 29.1303 22.0449C29.3978 21.8453 29.6509 21.6326 29.8848 21.4046C33.1014 18.2689 33.7391 12.7377 38.7575 12.2223C39.3643 12.1599 39.8611 12.1801 40.3134 12.1664C40.8346 12.1509 41.2959 12.0903 41.7976 11.8075ZM35.6797 29.5105C35.7396 30.4691 36.2961 32.3709 36.7873 32.8331C35.8252 33.0671 34.1678 32.6805 33.7426 32.0019C33.9611 31.022 35.098 30.1262 35.6797 29.5105Z"/><path id="Vector_3" fill="#002B64" d="M42.1592 12.8808C41.9658 13.2865 41.5955 13.8096 41.5955 14.8423C41.5939 15.0196 41.4608 15.1411 41.4586 14.8678C41.4686 13.8584 41.7358 13.422 42.0196 12.8485C42.1515 12.6136 42.2309 12.7105 42.1592 12.8808ZM41.9644 12.728C41.7362 13.1151 41.1868 13.8211 41.096 14.85C41.0792 15.0265 40.9357 15.1357 40.9575 14.863C41.0565 13.8586 41.4956 13.2299 41.8289 12.6835C41.9801 12.4612 42.0511 12.5647 41.9644 12.728ZM41.7869 12.5255C41.5269 12.8919 40.6812 13.7399 40.5044 14.7576C40.4726 14.9318 40.3205 15.0289 40.3652 14.759C40.5482 13.7662 41.2772 12.9859 41.6552 12.4698C41.8246 12.2608 41.8865 12.37 41.7869 12.5255ZM41.6284 12.2996L41.5429 12.3905C41.1647 12.7959 40.2863 13.7847 39.9935 14.6898C39.9372 14.8578 39.7731 14.9327 39.8555 14.6716C40.1761 13.7144 41.059 12.6835 41.5058 12.2258C41.7031 12.0426 41.749 12.1595 41.6284 12.2996ZM37.0894 14.3488C37.2853 13.5072 37.9398 13.1237 39.0698 13.2172C39.3424 14.4734 37.8165 14.9801 37.0894 14.3488Z"/></g></g></svg>

<svg xmlns="http://www.w3.org/2000/svg" fill="none" aria-hidden="true" viewBox="0 0 48 48"><path fill="#002B64" d="M43.122 10.72c-.618.02-.422.197-1.758.526-1.35.332-2.997.23-4.45.84-4.335 1.818-5.205 8.033-9.147 10.26-2.947 1.664-5.92 1.797-8.592 2.634-1.757.55-3.678 1.68-5.27 3.052-1.234 1.065-1.267 2-2.557 3.337-1.38 1.428-5.487.024-7.348 2.21.6.606.862.776 2.044.619-.245.463-1.687.854-1.404 1.536.296.718 3.782 1.204 6.95-.71 1.477-.89 2.652-2.174 4.95-2.48 2.974-.397 6.4.254 9.843.75-.51 1.522-1.535 2.535-2.356 3.747-.254.274.51.304 1.383.139 1.57-.388 2.701-.7 3.886-1.39 1.456-.848 1.676-3.02 3.462-3.49.995 1.53 3.7 1.89 5.38.667-1.473-.417-1.88-3.553-1.383-4.935.471-1.308.936-3.401 1.41-5.13.51-1.858.698-4.198 1.315-5.144.927-1.424 1.952-1.912 2.842-2.715.89-.802 1.704-1.584 1.677-3.42-.008-.592-.314-.921-.877-.904Z"/><path fill="#C49A6C" d="M41.798 11.807c.148.505.38.737 1.382.83-.147 1.27-.994 1.965-1.944 2.632-.836.586-1.752 1.151-2.341 2.067-.603.938-.986 4.15-1.92 7.322-.81 2.74-2.03 5.45-4.161 6.637-.223-.56.028-1.595-.415-1.935a17.35 17.35 0 0 1-.99 2.322c-1.25 2.39-3.102 4.18-6.196 4.727 1.468-1.987 2.872-4.039 2.902-7.463-1.033.223-1.011 2.664-2.073 3.316-.68.075-1.37.074-2.064.032-2.85-.17-5.774-1.027-8.44-.171-1.815.582-3.3 1.957-4.837 2.623-1.807.784-3.175 1.106-5.425.784-.285-.385 1.647-.882 1.531-1.717-.88-.097-1.392.116-2.157-.232.085-.156.209-.285.365-.393 1.403-.971 5.388-.23 6.454-1.277.658-.646 1.09-1.322 1.537-1.979.434-.637.882-1.257 1.565-1.816.252-.206.526-.41.817-.609a17.841 17.841 0 0 1 4.02-2.017c1.93-.678 3.886-.734 5.943-1.52 1.271-.486 2.653-1.086 3.78-1.925.267-.2.52-.413.754-.64 3.217-3.136 3.854-8.667 8.873-9.183.606-.062 1.103-.042 1.555-.056.522-.015.983-.076 1.485-.359ZM35.68 29.511c.06.958.616 2.86 1.108 3.322-.963.234-2.62-.152-3.045-.831.218-.98 1.355-1.876 1.937-2.492Z"/><path fill="#002B64" d="M42.16 12.88c-.194.406-.564.93-.564 1.962-.002.178-.135.3-.137.026.01-1.01.277-1.446.56-2.02.133-.234.212-.138.14.033Zm-.196-.152c-.228.387-.777 1.093-.868 2.122-.017.177-.16.286-.138.013.099-1.004.538-1.633.87-2.18.152-.222.223-.118.136.045Zm-.177-.203c-.26.367-1.106 1.215-1.283 2.233-.031.174-.183.27-.139.001.183-.993.912-1.773 1.29-2.29.17-.208.231-.099.132.056Zm-.159-.225-.085.09c-.378.406-1.257 1.395-1.55 2.3-.056.168-.22.243-.138-.018.321-.958 1.204-1.989 1.65-2.446.198-.183.244-.067.123.074Zm-4.539 2.049c.196-.842.85-1.225 1.98-1.132.273 1.256-1.253 1.763-1.98 1.132Z"/></svg>
